assets/icons/play.svg

<svg width="25" height="24" viewBox="0 0 25 24" fill="none" xmlns="http://www.w3.org/2000/svg">
<path d="M14.5706 6.58755C16.2036 7.51523 17.4868 8.24424 18.401 8.91203C19.3214 9.58441 20.0022 10.2872 20.246 11.2138C20.4248 11.8932 20.4248 12.608 20.246 13.2874C20.0022 14.214 19.3214 14.9167 18.401 15.5891C17.4868 16.2569 16.2036 16.9859 14.5707 17.9136C12.9933 18.8097 11.6631 19.5654 10.6533 19.995C9.63543 20.4279 8.70742 20.6474 7.80549 20.3918C7.14265 20.2038 6.53954 19.8474 6.05369 19.3572C5.39432 18.692 5.12964 17.7725 5.00442 16.666C4.88011 15.5675 4.88012 14.1296 4.88013 12.3007V12.2005C4.88012 10.3716 4.88011 8.93364 5.00442 7.83519C5.12964 6.72865 5.39432 5.80916 6.05369 5.1439C6.53954 4.65372 7.14265 4.29721 7.80549 4.10938C8.70742 3.8538 9.63543 4.07324 10.6533 4.5062C11.6631 4.93571 12.9933 5.69139 14.5706 6.58755Z" fill="white"/>
</svg>

<svg xmlns="http://www.w3.org/2000/svg" width="25" height="24" fill="none" viewBox="0 0 25 24"><path fill="#fff" d="M14.57 6.588c1.634.927 2.917 1.656 3.831 2.324.92.672 1.601 1.375 1.845 2.302.179.68.179 1.394 0 2.073-.244.927-.925 1.63-1.845 2.302-.914.668-2.197 1.397-3.83 2.325-1.578.896-2.908 1.651-3.918 2.081-1.018.433-1.946.652-2.848.397a4 4 0 0 1-1.751-1.035c-.66-.665-.924-1.584-1.05-2.691-.124-1.098-.124-2.536-.124-4.365v-.1c0-1.83 0-3.267.124-4.366.126-1.106.39-2.026 1.05-2.691a4 4 0 0 1 1.751-1.035c.902-.255 1.83-.036 2.848.397 1.01.43 2.34 1.185 3.918 2.082"/></svg>
